X: 34023
T: Reel D'Yvon Mimeault
R: reel
M: 4/4
K: Dmajor
|:dfed ~B3B|Acec dcBA|d/e/f ed ~B3B|Acec AcBA|1 ~d2d2:|2 d2dB||
|:ADED ADED|EDCD EFAB|ADED ADED|1 cdec d2dB:|2 cdec dABc||

